;*******************************************************
;*****                 PROGRAM INFO                *****
;*******************************************************
;PROGRAM NAME     : %_N_1001_MPF
;PROGRAM COMMENT  : 
;PART NAME        : 
;PART NUMBER      : 
;ISSUE / REVISION : 
;PROGRAMMER       : 
;DATE CREATED     : 20/4/2026 12:44:52
;SOFTWARE         : Autodesk Fusion 360
;POST             : Priminer VF Series - 5.328.0 - WIN32
;MACHINE          : 
;CYCLE TIME       : 35s
;PROGRAM STATE    : UNPROVEN
;*******************************************************
;*****          MEC Machine Tools Limited          *****
;*******************************************************

DEF INT RETURNCODE
DEF STRING[128] RESULTSFILE
DEF STRING[128] OUTPUT
DEF REAL INSPTOL

; Calibrated stylus diameter value for 3D surface inspection
R299=4.785957

N0 G54
N1 G17 G710 G90 G94
N2 G64
N3 G0 SUPA Z-1 D0
N4 CYCLE800()

N5 GROUP_BEGIN(0,"2D-Face1",0,0)
N6 MSG ("2D-Face1")
;*******************************************************
;*****             DATA FOR: 2D-Face1              *****
;*******************************************************
; USING TOOL NR: 2
; TOOL PATH TOLERANCE: 0.01 MM
; VC: 94.248 M
; FZ: 0.067 MM
; TOOL MAX Z: 27.5 MM
; TOOL MIN Z: 8.402 MM
; TOOL COMMENT: 
; Machining the chamfer on the FRONT SIDE of the part. Make sure that ABC axis a
;*******************************************************
;*****          MEC Machine Tools Limited          *****
;*******************************************************
N7 G0 SUPA X-1 Y1
N8 T2
N9 M6
N10 G0 SUPA Z0 D0
N11 D1
N12 CYCLE832(0.01,_TOP_SURFACE_SMOOTH_ON+_FINISH, 1)
N13 S5000 M3
N14 G17 G90 G94
N15 G54
N16 CYCLE800(0,"T1-507510 B/C",100000,27,0,0,0,0,0,30,0,0,0,-1,,0)
N17 G0 X53.6314 Y-18.5526
N18 G0 Z27.5
N19 M8
N20 G0 Z17.5
N21 G1 Z9.00192 F1000
N22 G1 X53.62763 Z8.93474
N23 G1 X53.61636 Z8.86841
N24 G1 X53.59773 Z8.80375
N25 G1 X53.57198 Z8.74159
N26 G1 X53.53943 Z8.6827
N27 G1 X53.5005 Z8.62783
N28 G1 X53.45566 Z8.57766
N29 G1 X53.40549 Z8.53282
N30 G1 X53.35062 Z8.49388
N31 G1 X53.29173 Z8.46134
N32 G1 X53.22957 Z8.43559
N33 G1 X53.16491 Z8.41696
N34 G1 X53.09858 Z8.40569
N35 G1 X53.0314 Z8.40192
N36 G1 X-55.5355
N37 G1 X-55.60268 Z8.40569
N38 G1 X-55.66901 Z8.41696
N39 G1 X-55.73367 Z8.43559
N40 G1 X-55.79583 Z8.46134
N41 G1 X-55.85472 Z8.49388
N42 G1 X-55.90959 Z8.53282
N43 G1 X-55.95976 Z8.57766
N44 G1 X-56.0046 Z8.62783
N45 G1 X-56.04354 Z8.6827
N46 G1 X-56.07608 Z8.74159
N47 G1 X-56.10183 Z8.80375
N48 G1 X-56.12046 Z8.86841
N49 G1 X-56.13173 Z8.93474
N50 G1 X-56.1355 Z9.00192
N51 G0 Z27.5
N52 GROUP_END(0, 0)
N53 M9
N54 G0 SUPA Z-1 D0
N55 D1
N56 CYCLE800()

N57 GROUP_BEGIN(0,"2D-Face2",0,0)
N58 MSG ("2D-Face2")
;*******************************************************
;*****             DATA FOR: 2D-Face2              *****
;*******************************************************
; USING TOOL NR: 2
; TOOL PATH TOLERANCE: 0.01 MM
; VC: 94.248 M
; FZ: 0.067 MM
; TOOL MAX Z: 40 MM
; TOOL MIN Z: 20.902 MM
; TOOL COMMENT: 
; Machining the chamfer on the LEFT SIDE of the part. Make sure that ABC axis an
;*******************************************************
;*****          MEC Machine Tools Limited          *****
;*******************************************************
N59 G17
N60 G0 SUPA X-1 Y1 D0
N61 D1
N62 CYCLE800(0,"T1-507510 B/C",100000,27,0,0,0,0,-30,0,0,0,0,-1,,0)
N63 G0 X-40.2032 Y-31.1355
N64 G0 Z40
N65 M8
N66 G0 Z30
N67 G1 Z21.5019 F1000
N68 G1 Y-31.13173 Z21.43472
N69 G1 Y-31.12046 Z21.36839
N70 G1 Y-31.10183 Z21.30373
N71 G1 Y-31.07608 Z21.24157
N72 G1 Y-31.04353 Z21.18268
N73 G1 Y-31.0046 Z21.12781
N74 G1 Y-30.95976 Z21.07764
N75 G1 Y-30.90959 Z21.0328
N76 G1 Y-30.85472 Z20.99386
N77 G1 Y-30.79583 Z20.96132
N78 G1 Y-30.73367 Z20.93557
N79 G1 Y-30.66901 Z20.91694
N80 G1 Y-30.60268 Z20.90567
N81 G1 Y-30.5355 Z20.9019
N82 G1 Y32
N83 G1 Y32.06718 Z20.90567
N84 G1 Y32.13351 Z20.91694
N85 G1 Y32.19817 Z20.93557
N86 G1 Y32.26033 Z20.96132
N87 G1 Y32.31922 Z20.99387
N88 G1 Y32.37409 Z21.0328
N89 G1 Y32.42426 Z21.07764
N90 G1 Y32.4691 Z21.12781
N91 G1 Y32.50803 Z21.18268
N92 G1 Y32.54058 Z21.24157
N93 G1 Y32.56633 Z21.30373
N94 G1 Y32.58496 Z21.36839
N95 G1 Y32.59623 Z21.43472
N96 G1 Y32.6 Z21.5019
N97 G0 Z40
N98 GROUP_END(0, 0)
N99 M9
N100 G0 SUPA Z-1 D0
N101 D1
N102 CYCLE800()

N103 GROUP_BEGIN(0,"2D-Face3",0,0)
N104 MSG ("2D-Face3")
;*******************************************************
;*****             DATA FOR: 2D-Face3              *****
;*******************************************************
; USING TOOL NR: 2
; TOOL PATH TOLERANCE: 0.01 MM
; VC: 94.248 M
; FZ: 0.067 MM
; TOOL MAX Z: 27.5 MM
; TOOL MIN Z: 8.402 MM
; TOOL COMMENT: 
; Machining the chamfer on the BACK SIDE of the part. Make sure that ABC axis an
;*******************************************************
;*****          MEC Machine Tools Limited          *****
;*******************************************************
N105 G0 SUPA X-1 Y1 D0
N106 D1
N107 CYCLE800(0,"T1-507510 B/C",100000,27,0,0,0,0,0,-30,0,0,0,-1,,0)
N108 G0 X-57.6 Y18.5526
N109 G0 Z27.5
N110 M8
N111 G0 Z17.5
N112 G1 Z9.00192 F1000
N113 G1 X-57.59623 Z8.93474
N114 G1 X-57.58496 Z8.86841
N115 G1 X-57.56633 Z8.80375
N116 G1 X-57.54058 Z8.74159
N117 G1 X-57.50803 Z8.6827
N118 G1 X-57.4691 Z8.62783
N119 G1 X-57.42426 Z8.57766
N120 G1 X-57.37409 Z8.53282
N121 G1 X-57.31922 Z8.49389
N122 G1 X-57.26033 Z8.46134
N123 G1 X-57.19817 Z8.43559
N124 G1 X-57.13351 Z8.41696
N125 G1 X-57.06718 Z8.40569
N126 G1 X-57 Z8.40192
N127 G1 X54.6569
N128 G1 X54.72408 Z8.40569
N129 G1 X54.79041 Z8.41696
N130 G1 X54.85507 Z8.43559
N131 G1 X54.91723 Z8.46134
N132 G1 X54.97612 Z8.49388
N133 G1 X55.03099 Z8.53282
N134 G1 X55.08116 Z8.57766
N135 G1 X55.126 Z8.62783
N136 G1 X55.16493 Z8.6827
N137 G1 X55.19748 Z8.74159
N138 G1 X55.22323 Z8.80375
N139 G1 X55.24186 Z8.86841
N140 G1 X55.25313 Z8.93474
N141 G1 X55.2569 Z9.00192
N142 G0 Z27.5
N143 GROUP_END(0, 0)
N144 M9
N145 G0 SUPA Z-1 D0
N146 D1
N147 CYCLE800()

N148 GROUP_BEGIN(0,"2D-Face4",0,0)
N149 MSG ("2D-Face4")
;*******************************************************
;*****             DATA FOR: 2D-Face4              *****
;*******************************************************
; USING TOOL NR: 2
; TOOL PATH TOLERANCE: 0.01 MM
; VC: 94.248 M
; FZ: 0.067 MM
; TOOL MAX Z: 40 MM
; TOOL MIN Z: 20.902 MM
; TOOL COMMENT: 
; Machining the chamfer on the RIGHT SIDE of the part. Make sure that ABC axis a
;*******************************************************
;*****          MEC Machine Tools Limited          *****
;*******************************************************
N150 G0 SUPA X-1 Y1 D0
N151 D1
N152 CYCLE800(0,"T1-507510 B/C",100000,27,0,0,0,0,30,0,0,0,0,-1,,0)
N153 G0 X40.2032 Y30.2569
N154 G0 Z40
N155 M8
N156 G0 Z30
N157 G1 Z21.5019 F1000
N158 G1 Y30.25313 Z21.43472
N159 G1 Y30.24186 Z21.36839
N160 G1 Y30.22323 Z21.30373
N161 G1 Y30.19748 Z21.24157
N162 G1 Y30.16494 Z21.18268
N163 G1 Y30.126 Z21.12781
N164 G1 Y30.08116 Z21.07764
N165 G1 Y30.03099 Z21.0328
N166 G1 Y29.97612 Z20.99386
N167 G1 Y29.91723 Z20.96132
N168 G1 Y29.85507 Z20.93557
N169 G1 Y29.79041 Z20.91694
N170 G1 Y29.72408 Z20.90567
N171 G1 Y29.6569 Z20.9019
N172 G1 Y-28.0314
N173 G1 Y-28.09858 Z20.90567
N174 G1 Y-28.16491 Z20.91694
N175 G1 Y-28.22957 Z20.93557
N176 G1 Y-28.29173 Z20.96132
N177 G1 Y-28.35062 Z20.99387
N178 G1 Y-28.40549 Z21.0328
N179 G1 Y-28.45566 Z21.07764
N180 G1 Y-28.5005 Z21.12781
N181 G1 Y-28.53943 Z21.18268
N182 G1 Y-28.57198 Z21.24157
N183 G1 Y-28.59773 Z21.30373
N184 G1 Y-28.61636 Z21.36839
N185 G1 Y-28.62763 Z21.43472
N186 G1 Y-28.6314 Z21.5019
N187 G0 Z40
N188 GROUP_END(0, 0)
N189 M9
N190 G0 SUPA Z-1 D0
N191 D1
N192 CYCLE800()

N193 GROUP_BEGIN(0,"2D-Face5",0,0)
N194 MSG ("2D-Face5")
;*******************************************************
;*****             DATA FOR: 2D-Face5              *****
;*******************************************************
; USING TOOL NR: 2
; TOOL PATH TOLERANCE: 0.01 MM
; VC: 94.248 M
; FZ: 0.067 MM
; TOOL MAX Z: 35.045 MM
; TOOL MIN Z: 14.603 MM
; TOOL COMMENT: 
; Machining the chamfer on the FRONT RIGHT CORNER of the part. Make sure that AB
;*******************************************************
;*****          MEC Machine Tools Limited          *****
;*******************************************************
N195 G0 SUPA X-1 Y1 D0
N196 D1
N197 CYCLE800(0,"T1-507510 B/C",100000,27,0,0,0,4.398705,14.878864,16.676761,0,0,0,-1,,0)
N198 G0 X35.23699 Y-12.08317
N199 G0 Z35.0446
N200 M8
N201 G0 Z25.0446
N202 G1 Z15.2029 F1000
N203 G1 X35.23956 Y-12.08593 Z15.13572
N204 G1 X35.24725 Y-12.09417 Z15.06939
N205 G1 X35.25995 Y-12.1078 Z15.00473
N206 G1 X35.27751 Y-12.12663 Z14.94257
N207 G1 X35.29971 Y-12.15043 Z14.88368
N208 G1 X35.32626 Y-12.17891 Z14.82881
N209 G1 X35.35684 Y-12.2117 Z14.77864
N210 G1 X35.39106 Y-12.24839 Z14.7338
N211 G1 X35.42848 Y-12.28852 Z14.69487
N212 G1 X35.46864 Y-12.33159 Z14.66232
N213 G1 X35.51104 Y-12.37705 Z14.63657
N214 G1 X35.55513 Y-12.42434 Z14.61794
N215 G1 X35.60037 Y-12.47285 Z14.60667
N216 G1 X35.64619 Y-12.52199 Z14.6029
N217 G1 X48.14898 Y-25.92959
N218 G1 X48.19479 Y-25.97872 Z14.60667
N219 G1 X48.24003 Y-26.02723 Z14.61794
N220 G1 X48.28413 Y-26.07452 Z14.63657
N221 G1 X48.32652 Y-26.11998 Z14.66232
N222 G1 X48.36669 Y-26.16305 Z14.69487
N223 G1 X48.40411 Y-26.20318 Z14.7338
N224 G1 X48.43833 Y-26.23987 Z14.77864
N225 G1 X48.4689 Y-26.27266 Z14.82881
N226 G1 X48.49546 Y-26.30114 Z14.88368
N227 G1 X48.51765 Y-26.32494 Z14.94257
N228 G1 X48.53522 Y-26.34377 Z15.00473
N229 G1 X48.54792 Y-26.3574 Z15.06939
N230 G1 X48.55561 Y-26.36564 Z15.13572
N231 G1 X48.55818 Y-26.3684 Z15.2029
N232 G0 Z35.0446
N233 GROUP_END(0, 0)

N234 M9
N235 M5
N236 G0 SUPA Z-1 D0
N237 D1
N238 G0 SUPA X-1 Y1 D0
N239 D1
N240 CYCLE800(0,"T1-507510 B/C",100000,27,0,0,0,0,0,0,0,0,0,-1,,0)
N241 CYCLE800()
N242 M30

